modules/feathericon/icons/comments.svg

<?xml version="1.0" encoding="UTF-8"?>
<svg width="14px" height="12px" viewBox="0 0 14 12" version="1.1" xmlns="http://www.w3.org/2000/svg" xmlns:xlink="http://www.w3.org/1999/xlink">
    <!-- Generator: sketchtool 48.1 (47250) - http://www.bohemiancoding.com/sketch -->
    <title>comments</title>
    <desc>Created with sketchtool.</desc>
    <defs></defs>
    <g id="web-app" stroke="none" stroke-width="1" fill="none" fill-rule="evenodd">
        <g id="comments" fill="#000000">
            <path d="M4.04750273,4.00025653 C4.3844813,1.74019971 6.47338542,0 9,0 C11.7614237,0 14,2.07867795 14,4.64285714 C14,5.90790643 13.4551336,7.05478537 12.5714286,7.89218243 L12.5714286,10 L11.3254829,8.75405431 C10.6307973,9.09356964 9.83956359,9.28571429 9,9.28571429 C8.55046606,9.28571429 8.11478799,9.23062767 7.70036759,9.12732754 C7.10162003,10.4778326 5.67037914,11.4285714 4,11.4285714 C3.32834913,11.4285714 2.69536219,11.2748557 2.13961369,11.0032434 L1.14285714,12 L1.14285714,10.3137459 C0.435893131,9.64382829 0,8.72632514 0,7.71428571 C0,5.66294236 1.790861,4 4,4 C4.01585596,4 4.03169038,4.00008567 4.04750273,4.00025653 L4.04750273,4.00025653 Z M1,7.78571429 C1,6.24392823 2.34314575,5 4,5 C5.65685425,5 7,6.24720677 7,7.78571429 C7,9.3242218 5.65685425,10.5714286 4,10.5714286 C2.34314575,10.5714286 1,9.32750034 1,7.78571429 Z" id="Shape"></path>
        </g>
    </g>
</svg>

<svg width="14" height="12" viewBox="0 0 14 12" xmlns="http://www.w3.org/2000/svg"><path d="M4.048 4C4.384 1.74 6.473 0 9 0c2.761 0 5 2.079 5 4.643 0 1.265-.545 2.412-1.429 3.25V10l-1.246-1.246a5.37 5.37 0 0 1-3.625.373c-.598 1.35-2.03 2.302-3.7 2.302a4.23 4.23 0 0 1-1.86-.426L1.143 12v-1.686C.436 9.644 0 8.726 0 7.714 0 5.663 1.79 4 4 4h.048zM1 7.786C1 6.244 2.343 5 4 5s3 1.247 3 2.786c0 1.538-1.343 2.785-3 2.785S1 9.328 1 7.786z" fill="#000" fill-rule="evenodd"/></svg>
